src/rss.svg

<svg viewBox="0 0 24 24" fill="none" xmlns="http://www.w3.org/2000/svg"><path d="M19.5 0H4.5C2.01472 0 0 2.01472 0 4.5V19.5C0 21.9853 2.01472 24 4.5 24H19.5C21.9853 24 24 21.9853 24 19.5V4.5C24 2.01472 21.9853 0 19.5 0Z" fill="#FFA500"/><path d="M6 21C7.65685 21 9 19.6569 9 18C9 16.3431 7.65685 15 6 15C4.34315 15 3 16.3431 3 18C3 19.6569 4.34315 21 6 21Z" fill="white"/><path d="M3 12C5.38695 12 7.67613 12.9482 9.36396 14.636C11.0518 16.3239 12 18.6131 12 21H15C15 17.8174 13.7357 14.7652 11.4853 12.5147C9.23484 10.2643 6.1826 9 3 9V12Z" fill="white"/><path d="M3 6C4.96983 6 6.92037 6.38799 8.74025 7.14181C10.5601 7.89563 12.2137 9.00052 13.6066 10.3934C14.9995 11.7863 16.1044 13.4399 16.8582 15.2597C17.612 17.0796 18 19.0302 18 21H21C21 16.2261 19.1036 11.6477 15.7279 8.27208C12.3523 4.89642 7.7739 3 3 3V6Z" fill="white"/></svg>

<svg viewBox="0 0 24 24" fill="none" xmlns="http://www.w3.org/2000/svg"><path d="M19.5 0h-15A4.5 4.5 0 0 0 0 4.5v15A4.5 4.5 0 0 0 4.5 24h15a4.5 4.5 0 0 0 4.5-4.5v-15A4.5 4.5 0 0 0 19.5 0Z" fill="#FFA500"/><path d="M6 21a3 3 0 1 0 0-6 3 3 0 0 0 0 6Z" fill="white"/><path d="M3 12a9 9 0 0 1 9 9h3A12 12 0 0 0 3 9v3Z" fill="white"/><path d="M3 6a15 15 0 0 1 15 15h3A18 18 0 0 0 3 3v3Z" fill="white"/></svg>
